packages/components/icon/src/assets/icons/arrow-left-skip.svg

<?xml version="1.0" encoding="UTF-8"?>
<svg width="24px" height="24px" viewBox="0 0 24 24" version="1.1" xmlns="http://www.w3.org/2000/svg" xmlns:xlink="http://www.w3.org/1999/xlink">
	<path d="M7,7 L9,7 L9,17 L7,17 L7,7 Z M15.2969027,7.28888371 C15.9268676,6.65891885 17.0040095,7.10508564 17.0040095,7.99599049 L17.0040095,15.9959905 C17.0040095,16.8868953 15.9268676,17.3330621 15.2969027,16.7030973 L11.2969027,12.7030973 C10.9063784,12.312573 10.9063784,11.679408 11.2969027,11.2888837 L15.2969027,7.28888371 Z" fill="currentColor"></path>
</svg>

<svg viewBox="0 0 24 24" xmlns="http://www.w3.org/2000/svg"><path d="M7 7h2v10H7V7Zm8.297.289c.63-.63 1.707-.184 1.707.707v8c0 .89-1.077 1.337-1.707.707l-4-4a1 1 0 0 1 0-1.414l4-4Z" fill="currentColor"/></svg>
